!!!OTL: Birds' Courting Song
!!!ARE: United States of America; New England
!!!AMD: Pentatonic
**kern
=1-
*clefG2
*k[f#]
*M4/4
{8.d/L
16d/Jk
8.d/L
16d/Jk
8g/L
8g/J
8g/L}
{8g/J
=2
8.d/L
16d/Jk
8.d/L
16d/Jk
8e/L
8d/J
4d/}
=3
{8.d/L
16d/Jk
8.d/L
16d/Jk
8g/L
8g/J
8g/L}
{8g/J
=4
8.d/L
16d/Jk
8.d/L
16d/Jk
8e/L
8d/J
4d/}
=5
*k[]
{8.d/L
16d/Jk
8g/L
8a/J
8.b/L
16b/Jk
8b/L}
{8b/J
=6
8.a/L
16a/Jk
8g/L
8a/J
8b/L
8b/J
4b/}
=7
*k[f#]
{8g/
4g/
8a/
8g/
8e/
8e/
8d/
=8
1g}
=9
{8g/
4g/
8a/
8g/L
8e/J
8e/L
8d/J
=10
2.g/}
4r
==
*-
